src/packages/tokens/img/ltc.svg

<svg width="24" height="24" viewBox="0 0 24 24" fill="none" xmlns="http://www.w3.org/2000/svg">
<g clip-path="url(#clip0_8_2936)">
<path d="M12 22.7011C17.9102 22.7011 22.7012 17.91 22.7012 11.9999C22.7012 6.0898 17.9102 1.29871 12 1.29871C6.08992 1.29871 1.29883 6.0898 1.29883 11.9999C1.29883 17.91 6.08992 22.7011 12 22.7011Z" fill="white"/>
<path d="M12 0C9.62663 0 7.30655 0.703788 5.33316 2.02236C3.35977 3.34094 1.8217 5.21508 0.913451 7.4078C0.00519937 9.60051 -0.232441 12.0133 0.230582 14.3411C0.693605 16.6689 1.83649 18.807 3.51472 20.4853C5.19295 22.1635 7.33115 23.3064 9.65892 23.7694C11.9867 24.2324 14.3995 23.9948 16.5922 23.0865C18.7849 22.1783 20.6591 20.6402 21.9776 18.6668C23.2962 16.6934 24 14.3734 24 12C24.0046 10.4287 23.6996 8.87191 23.1026 7.41848C22.5055 5.96505 21.628 4.64345 20.5202 3.52915C19.4123 2.41484 18.0959 1.52965 16.6459 0.924121C15.196 0.318589 13.641 0.00457211 12.0697 0H12ZM12.2034 12.4068L10.954 16.6199H17.6368C17.6811 16.6183 17.7252 16.6255 17.7667 16.641C17.8082 16.6565 17.8462 16.6801 17.8786 16.7103C17.911 16.7405 17.9371 16.7768 17.9554 16.8171C17.9738 16.8575 17.984 16.901 17.9855 16.9453V17.0557L17.4044 19.0605C17.3787 19.1553 17.3216 19.2386 17.2424 19.2967C17.1632 19.3548 17.0667 19.3842 16.9685 19.3801H6.74092L8.45521 13.5399L6.53753 14.1211L6.97337 12.7845L8.89104 12.2034L11.3027 4.00968C11.3292 3.91541 11.3865 3.83272 11.4655 3.7748C11.5445 3.71688 11.6406 3.68705 11.7385 3.69007H14.3245C14.3687 3.68852 14.4129 3.69571 14.4544 3.71123C14.4958 3.72674 14.5339 3.75029 14.5662 3.78051C14.5986 3.81073 14.6247 3.84704 14.6431 3.88737C14.6614 3.92769 14.6716 3.97123 14.6731 4.0155V4.12591L12.6392 11.0412L14.5569 10.46L14.1501 11.8547L12.2034 12.4068Z" fill="#345D9D"/>
</g>
<defs>
<clipPath id="clip0_8_2936">
<rect width="24" height="24" fill="white"/>
</clipPath>
</defs>
</svg>

<svg xmlns="http://www.w3.org/2000/svg" width="24" height="24" fill="none" xmlns:v="https://vecta.io/nano"><g clip-path="url(#A)"><path d="M12 22.701c5.91 0 10.701-4.791 10.701-10.701S17.91 1.299 12 1.299 1.299 6.09 1.299 12 6.09 22.701 12 22.701z" fill="#fff"/><path d="M12 0A12 12 0 0 0 .913 7.408a12 12 0 0 0 2.601 13.077 12 12 0 0 0 13.077 2.601A12 12 0 0 0 24 12c.005-1.571-.3-3.128-.897-4.582s-1.475-2.775-2.582-3.889S18.096 1.53 16.646.924 13.641.005 12.07 0H12zm.203 12.407l-1.249 4.213h6.683c.044-.002.088.006.13.021s.079.039.112.069.059.067.077.107.029.084.03.128v.11l-.581 2.005c-.026.095-.083.178-.162.236s-.176.087-.274.083H6.741l1.714-5.84-1.918.581.436-1.337 1.918-.581 2.412-8.194a.44.44 0 0 1 .436-.32h2.586c.044-.002.088.006.13.021s.079.039.112.069.059.067.077.107.028.084.03.128v.11l-2.034 6.915 1.918-.581-.407 1.395-1.947.552z" fill="#345d9d"/></g><defs><clipPath id="A"><path fill="#fff" d="M0 0h24v24H0z"/></clipPath></defs></svg>
